X: 2556
T: Ballyhoura Mountains, The
R: polka
M: 2/4
K: Dmajor
A/G/|F/G/A/B/ Ad|BdAd|F/G/A/B/ Ad|fe eA/G/|
F/G/A/B/ Ad||BdAd|Be/d/ c/A/B/c/|ded|
K:Gmaj
d/c/|B>c BA/G/|DG Gd/c/|B>c BA/G/|eA Ad/c/|
B>c BA/G/|DG GB/d/|gd ed/c/|BGG B/d/|
gd ed/c/|Bd de/f/|gfed|cB AB/d/|
gd ed/c/|Bd d>g|BB/G/ A/B/c/A/|BG!D.C.!G|

